craft2/public/assets/svgicons/branches/puzzle-01.svg

<svg xmlns="http://www.w3.org/2000/svg" width="46" height="47" viewBox="0 0 46 47"><g stroke="#3B3735" stroke-width="2" stroke-linecap="round" stroke-linejoin="round" stroke-miterlimit="10" fill="none"><path d="M20.214 6.345c-.082 0-.214.019-.214.025v-5.37h-19v19h5.959c.336-1 1.799-2.902 3.554-2.902s3.219 1.902 3.555 2.902h5.932v-6.424c0 .005.132.024.214.024 2.003 0 3.628-1.624 3.628-3.628 0-2.003-1.624-3.627-3.628-3.627z"/><path d="M26.979 40.569c.078 0 .021-.018.021-.023v5.454h18v-18h-5.437c-.315 1-1.684 2.716-3.326 2.716s-3.012-1.716-3.326-2.716h-5.911v5.802c0-.005.057-.023-.021-.023-1.875 0-3.395 1.52-3.395 3.395.001 1.875 1.521 3.395 3.395 3.395z"/><path d="M1 20v19h19v-6.126c-1-.336-2.902-1.799-2.902-3.554s.902-3.219 2.902-3.555v-5.765"/><path d="M20 20h6.257c-.005 0-.024.103-.024.186 0 2.003 1.624 3.599 3.628 3.599 2.003 0 3.628-1.582 3.628-3.585 0-.083-.019-.2-.024-.2h5.535v-19h-19"/></g></svg>

<?xml version="1.0" encoding="iso-8859-1"?>
<!-- Generator: Adobe Illustrator 17.0.0, SVG Export Plug-In . SVG Version: 6.00 Build 0)  -->
<!DOCTYPE svg PUBLIC "-//W3C//DTD SVG 1.1//EN" "http://www.w3.org/Graphics/SVG/1.1/DTD/svg11.dtd">
<svg version="1.1" id="Layer_1" xmlns="http://www.w3.org/2000/svg" xmlns:xlink="http://www.w3.org/1999/xlink" x="0px" y="0px"
	 width="46px" height="47px" viewBox="0 0 46 47" style="enable-background:new 0 0 46 47;" xml:space="preserve">
<g>
	<path style="fill:none;stroke:#3B3735;stroke-width:2;stroke-linecap:round;stroke-linejoin:round;stroke-miterlimit:10;" d="
		M20.214,6.345C20.132,6.345,20,6.364,20,6.37V1H1v19h5.959c0.336-1,1.799-2.902,3.554-2.902S13.732,19,14.068,20H20v-6.424
		c0,0.005,0.132,0.024,0.214,0.024c2.003,0,3.628-1.624,3.628-3.628C23.842,7.969,22.218,6.345,20.214,6.345z"/>
	<path style="fill:none;stroke:#3B3735;stroke-width:2;stroke-linecap:round;stroke-linejoin:round;stroke-miterlimit:10;" d="
		M26.979,40.569c0.078,0,0.021-0.018,0.021-0.023V46h18V28h-5.437c-0.315,1-1.684,2.716-3.326,2.716S33.225,29,32.911,28H27v5.802
		c0-0.005,0.057-0.023-0.021-0.023c-1.875,0-3.395,1.52-3.395,3.395C23.585,39.049,25.105,40.569,26.979,40.569z"/>
	<path style="fill:none;stroke:#3B3735;stroke-width:2;stroke-linecap:round;stroke-linejoin:round;stroke-miterlimit:10;" d="M1,20
		v19h19v-6.126c-1-0.336-2.902-1.799-2.902-3.554S18,26.101,20,25.765V20"/>
	<path style="fill:none;stroke:#3B3735;stroke-width:2;stroke-linecap:round;stroke-linejoin:round;stroke-miterlimit:10;" d="
		M20,20h6.257c-0.005,0-0.024,0.103-0.024,0.186c0,2.003,1.624,3.599,3.628,3.599c2.003,0,3.628-1.582,3.628-3.585
		c0-0.083-0.019-0.2-0.024-0.2H39V1H20"/>
</g>
</svg>
